common/svg/plan-free-icon.svg

<svg fill="none" height="20" viewBox="0 0 20 20" width="20" xmlns="http://www.w3.org/2000/svg"><path clip-rule="evenodd" d="m16.5644 16.2736-6.56441-11.2232-6.56437 11.2232zm-5.632-14.44278c-.4171-.71307-1.4477-.71307-1.86477 0l-8.918229 15.24758c-.421165.7201.098166 1.6255.932359 1.6255h17.83644c.8342 0 1.3535-.9054.9324-1.6255z" fill="#000" fill-rule="evenodd"/></svg>

<svg width="20" height="20" viewBox="0 0 20 20" fill="none" xmlns="http://www.w3.org/2000/svg">
<path fill-rule="evenodd" clip-rule="evenodd" d="M16.5644 16.2736L9.99999 5.0504L3.43562 16.2736H16.5644ZM10.9324 1.83082C10.5153 1.11775 9.4847 1.11775 9.06763 1.83082L0.149401 17.0784C-0.271764 17.7985 0.247567 18.7039 1.08176 18.7039H18.9182C19.7524 18.7039 20.2717 17.7985 19.8506 17.0784L10.9324 1.83082Z" fill="black"/>
</svg>
